X:1
T:Title
%%score { ( 1 3 ) | ( 2 4 ) }
L:1/8
M:3/4
K:Eb
V:1 treble nm="Grand Piano"
V:3 treble 
V:2 treble 
V:4 treble 
V:1
 z2 z[Q:1/4=90] B =AB | G4 z2 | [FA]4 z2 | [GB]4 z2 |[M:3/8] [DB]3 | B=AB |[M:3/4] G4 z2 | c4 z2 | %8
 B4 z2 |[M:3/8] [E,G,E]3 | eee |[M:3/4] e3 c BG | [DF]3 [DF] [DF][EG] | [FA]3 B dc |[M:3/8] [DB]3 | %15
 [GB][_G=A][=GB] |[M:3/4] [EG]3 [EG] [EA][EB] | [Ec]4 [EAc]2 | B4 z2 |[M:3/8] [G,E]3 |] %20
V:2
 z2 z G _G=G | z G, G,[K:treble]G AG | z F, F,D EF | z G, G,D [B,F][=A,E] |[M:3/8] z F,A, | G_G=G | %6
[M:3/4] E4 z2 | A4[K:bass] z2 | z D _DC z A, |[M:3/8] E,,3 | [E,G,E][F,A,E][K:treble][G,B,E] | %11
[M:3/4] [A,CA]3 [A,EA][K:bass] [G,E][E,B,E] | [B,,B,]3 [B,,B,] [B,,B,][B,,B,] | %13
 [B,,B,]3 [F,B,D] [F,B,F][F,=A,E] |[M:3/8] [B,,B,]3 | [E,E][E,E][E,E] | %16
[M:3/4] [E,B,]3 [_D,B,] [C,A,][B,,G,] | [A,,A,]4 A,,2 | E,F, G,A, B,B,, |[M:3/8] E,3 |] %20
V:3
 x6 | z B, B,B cB | z [B,D] [B,D]F GA | z [B,E] [B,E]B dc |[M:3/8] B, z z | x3 | %6
[M:3/4] z B, B,G AB | z [CE] .[CE]2 [EAc]2 | [EG]A G[FA] [B,EG][DF] |[M:3/8] x3 | x3 |[M:3/4] x6 | %12
 x6 | x6 |[M:3/8] x3 | x3 |[M:3/4] x6 | x6 | [EG][DF] E[CFA] [EG][A,DF] |[M:3/8] x3 |] %20
V:4
 x6 | [E,E]4[K:treble] z2 | B,,4 z2 | E,4 F,2 |[M:3/8] B,,3 | x3 |[M:3/4] z G, G,E FG | %7
 z[K:bass] A, .A,2 A,,2 | B,,4 B,,2 |[M:3/8] x3 | x2[K:treble] x |[M:3/4] x4[K:bass] x2 | x6 | x6 | %14
[M:3/8] x3 | x3 |[M:3/4] x6 | x6 | x6 |[M:3/8] x3 |] %20

